src/images/contact/contact-chat.svg

<?xml version="1.0" encoding="utf-8"?>
<!-- Generator: Adobe Illustrator 19.2.1, SVG Export Plug-In . SVG Version: 6.00 Build 0)  -->
<svg version="1.1" id="Layer_1" xmlns="http://www.w3.org/2000/svg" xmlns:xlink="http://www.w3.org/1999/xlink" x="0px" y="0px"
	 viewBox="0 0 54 54" style="enable-background:new 0 0 54 54;" xml:space="preserve">
<style type="text/css">
	.st0{fill:#8DD5E7;}
	.st1{fill:#52306C;}
	.st2{fill:#CCAFD0;}
	.st3{fill:#53316D;}
</style>
<g>
	<path class="st0" d="M6.1,50l3.9-4.9V36c0-1.7,1.4-3.1,3.1-3.1H47c1.7,0,3,1.3,3,3v11c0,1.7-1.3,3-3,3L6.1,50L6.1,50z"/>
	<path class="st1" d="M47,34c1.1,0,2,0.9,2,2v11c0,1.1-0.9,2-2,2H8.2l2.4-3l0.4-0.5v-0.7v-8.7c0-1.1,0.9-2.1,2.1-2.1H47 M47,32H13.1
		C10.8,32,9,33.8,9,36.1v8.7L4,51h43c2.2,0,4-1.8,4-4V36C51,33.8,49.2,32,47,32L47,32z"/>
</g>
<g>
	<path class="st2" d="M7,28c-1.7,0-3-1.3-3-3V7c0-1.7,1.3-3,3-3h33.9C42.6,4,44,5.4,44,7.1v16.1l3.9,4.9H7V28z"/>
	<g>
		<path class="st1" d="M40.9,5C42.1,5,43,5.9,43,7.1v15.7v0.7l0.4,0.5l2.4,3H7c-1.1,0-2-0.9-2-2V7c0-1.1,0.9-2,2-2H40.9 M40.9,3H7
			C4.8,3,3,4.8,3,7v18c0,2.2,1.8,4,4,4h43l-5-6.2V7.1C45,4.8,43.2,3,40.9,3L40.9,3z"/>
	</g>
</g>
<path class="st1" d="M24,23c-1.1,0-1.9-1-1.9-2c0-1.1,1-1.9,2-1.9s1.9,0.9,1.9,2C26,22.1,25.1,23,24,23z M22.5,18.5
	c-0.2,0-0.3-0.1-0.3-0.3v-0.4c-0.3-1.4,0.4-2.8,1.7-3.4c1.2-0.7,1.4-1,1.4-1.7c0-0.6-0.5-1-1.1-1h-0.1c-0.6,0-1.2,0.4-1.2,1.1v0.1
	c0,0.2-0.1,0.3-0.3,0.3h-3c-0.2,0-0.3-0.1-0.3-0.3l0,0c0-2.6,1.9-4.3,5-4.3c2.9,0,4.9,1.6,4.9,4c0,1.5-0.7,2.5-2.1,3.3
	c-1.3,0.7-1.4,1-1.4,1.7V18c0,0.2-0.1,0.3-0.3,0.3L22.5,18.5L22.5,18.5z"/>
<circle class="st3" cx="30" cy="42" r="2"/>
<circle class="st3" cx="38" cy="42" r="2"/>
<circle class="st3" cx="22" cy="42" r="2"/>
</svg>

<svg id="Layer_1" data-name="Layer 1" xmlns="http://www.w3.org/2000/svg" viewBox="0 0 54 54"><defs><style>.cls-1{fill:#8dd5e7;}.cls-2{fill:#52306c;}.cls-3{fill:#ccafd0;}.cls-4{fill:#53316d;}</style></defs><title>contact-chat</title><path class="cls-1" d="M6.1,50L10,45.1V36a3.12,3.12,0,0,1,3.1-3.1H47a3,3,0,0,1,3,3v11a3,3,0,0,1-3,3L6.1,50h0Z"/><path class="cls-2" d="M47,34a2,2,0,0,1,2,2V47a2,2,0,0,1-2,2H8.2l2.4-3,0.4-.5V36.1A2.11,2.11,0,0,1,13.1,34H47m0-2H13.1A4.06,4.06,0,0,0,9,36.1v8.7L4,51H47a4,4,0,0,0,4-4V36a4,4,0,0,0-4-4h0Z"/><path class="cls-3" d="M7,28a3,3,0,0,1-3-3V7A3,3,0,0,1,7,4H40.9A3.12,3.12,0,0,1,44,7.1V23.2l3.9,4.9H7V28Z"/><path class="cls-2" d="M40.9,5A2.05,2.05,0,0,1,43,7.1V23.5L43.4,24l2.4,3H7a2,2,0,0,1-2-2V7A2,2,0,0,1,7,5H40.9m0-2H7A4,4,0,0,0,3,7V25a4,4,0,0,0,4,4H50l-5-6.2V7.1A4.06,4.06,0,0,0,40.9,3h0Z"/><path class="cls-2" d="M24,23a2,2,0,1,1,2-1.9A2,2,0,0,1,24,23Zm-1.5-4.5a0.27,0.27,0,0,1-.3-0.3V17.8a3,3,0,0,1,1.7-3.4c1.2-.7,1.4-1,1.4-1.7a1,1,0,0,0-1.1-1H24.1a1.13,1.13,0,0,0-1.2,1.1v0.1a0.27,0.27,0,0,1-.3.3h-3a0.27,0.27,0,0,1-.3-0.3h0c0-2.6,1.9-4.3,5-4.3,2.9,0,4.9,1.6,4.9,4a3.56,3.56,0,0,1-2.1,3.3c-1.3.7-1.4,1-1.4,1.7V18a0.27,0.27,0,0,1-.3.3l-2.9.2h0Z"/><circle class="cls-4" cx="30" cy="42" r="2"/><circle class="cls-4" cx="38" cy="42" r="2"/><circle class="cls-4" cx="22" cy="42" r="2"/></svg>
